content/img/pricing/sprite-features.svg

<svg width="48" height="192" viewBox="0 0 48 192" fill="none" xmlns="http://www.w3.org/2000/svg">
<circle cx="24" cy="168" r="24" fill="#D1EBFF"/>
<path d="M34.2308 156H13.7692C12.7704 156.003 11.8134 156.403 11.1071 157.114C10.4009 157.824 10.0028 158.787 10 159.792V172.792C10.0028 173.796 10.4009 174.759 11.1071 175.47C11.8134 176.18 12.7704 176.58 13.7692 176.583H16.4615V182L22.7696 176.709C22.8665 176.628 22.9887 176.583 23.1149 176.583H34.2308C35.2296 176.58 36.1866 176.18 36.8929 175.47C37.5991 174.759 37.9972 173.796 38 172.792V159.792C37.9972 158.787 37.5991 157.824 36.8929 157.114C36.1866 156.403 35.2296 156.003 34.2308 156V156Z" stroke="#3880FF" stroke-width="2" stroke-linejoin="round"/>
<path d="M16 169C17.1046 169 18 168.105 18 167C18 165.895 17.1046 165 16 165C14.8954 165 14 165.895 14 167C14 168.105 14.8954 169 16 169Z" stroke="#7CABFF" stroke-width="2"/>
<path d="M24 169C25.1046 169 26 168.105 26 167C26 165.895 25.1046 165 24 165C22.8954 165 22 165.895 22 167C22 168.105 22.8954 169 24 169Z" stroke="#7CABFF" stroke-width="2"/>
<path d="M32 169C33.1046 169 34 168.105 34 167C34 165.895 33.1046 165 32 165C30.8954 165 30 165.895 30 167C30 168.105 30.8954 169 32 169Z" stroke="#7CABFF" stroke-width="2"/>
<circle cx="24" cy="120" r="24" fill="#D1EBFF"/>
<path d="M19.333 128.308V112.692" stroke="#4D8DFF" stroke-width="2" stroke-linecap="round" stroke-linejoin="round"/>
<path d="M32.6663 117.154C32.6663 126.077 19.333 120.5 19.333 128.308" stroke="#4D8DFF" stroke-width="2" stroke-linecap="round" stroke-linejoin="round"/>
<path d="M19.3333 112.692C21.1743 112.692 22.6667 111.194 22.6667 109.346C22.6667 107.498 21.1743 106 19.3333 106C17.4924 106 16 107.498 16 109.346C16 111.194 17.4924 112.692 19.3333 112.692Z" stroke="#7CABFF" stroke-width="2" stroke-linecap="round" stroke-linejoin="round"/>
<path d="M19.3333 135C21.1743 135 22.6667 133.502 22.6667 131.654C22.6667 129.806 21.1743 128.308 19.3333 128.308C17.4924 128.308 16 129.806 16 131.654C16 133.502 17.4924 135 19.3333 135Z" stroke="#7CABFF" stroke-width="2" stroke-linecap="round" stroke-linejoin="round"/>
<path d="M32.6663 117.154C34.5073 117.154 35.9997 115.656 35.9997 113.808C35.9997 111.96 34.5073 110.461 32.6663 110.461C30.8254 110.461 29.333 111.96 29.333 113.808C29.333 115.656 30.8254 117.154 32.6663 117.154Z" stroke="#7CABFF" stroke-width="2" stroke-linecap="round" stroke-linejoin="round"/>
<circle cx="24" cy="72" r="24" fill="#D1EBFF"/>
<path d="M22 85V82C22 80.8954 21.1046 80 20 80H16C14.8954 80 14 80.8954 14 82V85" stroke="#7CABFF" stroke-width="2"/>
<path d="M34 85V82C34 80.8954 33.1046 80 32 80H28C26.8954 80 26 80.8954 26 82V85" stroke="#7CABFF" stroke-width="2"/>
<rect x="9" y="59" width="30" height="26" rx="5" stroke="#4D8DFF" stroke-width="2"/>
<rect x="14" y="68" width="8" height="8" rx="2" stroke="#7CABFF" stroke-width="2"/>
<rect x="26" y="68" width="8" height="8" rx="2" stroke="#7CABFF" stroke-width="2"/>
<circle cx="13" cy="63" r="1" fill="#4D8DFF"/>
<circle cx="16" cy="63" r="1" fill="#4D8DFF"/>
<circle cx="19" cy="63" r="1" fill="#4D8DFF"/>
<circle cx="24" cy="24" r="24" fill="#D1EBFF"/>
<path d="M11.3313 20L36.6637 20C36.8965 19.9997 37.1253 20.0402 37.3275 20.1176C37.5296 20.195 37.6981 20.3066 37.816 20.4412C37.934 20.5758 37.9974 20.7289 37.9999 20.885C38.0024 21.0412 37.944 21.1951 37.8304 21.3314L25.1641 36.5415C25.0484 36.6805 24.8796 36.7963 24.6749 36.8769C24.4703 36.9575 24.2373 37 24 37C23.7627 37 23.5297 36.9575 23.3251 36.8769C23.1204 36.7963 22.9516 36.6805 22.8359 36.5415L10.1696 21.3314C10.0562 21.1954 9.99777 21.0418 10.0001 20.8859C10.0024 20.73 10.0653 20.5772 10.1827 20.4427C10.3001 20.3081 10.4678 20.1965 10.6693 20.1189C10.8707 20.0412 11.0989 20.0002 11.3313 20Z" fill="#D1EBFF" stroke="#5A97FF" stroke-width="2"/>
<path d="M14.046 13L33.9501 13C34.133 12.9997 34.3128 13.0307 34.4716 13.0899C34.6304 13.1491 34.7628 13.2344 34.8555 13.3374C34.9482 13.4404 34.998 13.5574 34.9999 13.6768C35.0019 13.7962 34.956 13.9139 34.8667 14.0182L24.9147 25.6494C24.8238 25.7557 24.6911 25.8442 24.5303 25.9059C24.3695 25.9675 24.1864 26 24 26C23.8136 26 23.6305 25.9675 23.4697 25.9059C23.3089 25.8442 23.1762 25.7557 23.0853 25.6494L13.1333 14.0182C13.0442 13.9141 12.9983 13.7967 13.0001 13.6774C13.0019 13.5582 13.0513 13.4414 13.1435 13.3385C13.2358 13.2356 13.3676 13.1503 13.5259 13.0909C13.6841 13.0315 13.8634 13.0002 14.046 13Z" fill="#D1EBFF" stroke="#7CABFF" stroke-width="2"/>
</svg>

<svg width="48" height="192" viewBox="0 0 48 192" fill="none" xmlns="http://www.w3.org/2000/svg"><circle cx="24" cy="168" r="24" fill="#D1EBFF"/><path d="M34.23 156H13.77a3.767 3.767 0 00-2.663 1.114A3.813 3.813 0 0010 159.792v13a3.816 3.816 0 001.107 2.678 3.77 3.77 0 002.662 1.113h2.693V182l6.308-5.291a.539.539 0 01.345-.126H34.23a3.77 3.77 0 002.662-1.113A3.816 3.816 0 0038 172.792v-13a3.813 3.813 0 00-1.107-2.678A3.767 3.767 0 0034.23 156v0z" stroke="#3880FF" stroke-width="2" stroke-linejoin="round"/><path d="M16 169a2 2 0 100-4 2 2 0 000 4zm8 0a2 2 0 100-4 2 2 0 000 4zm8 0a2 2 0 100-4 2 2 0 000 4z" stroke="#7CABFF" stroke-width="2"/><circle cx="24" cy="120" r="24" fill="#D1EBFF"/><path d="M19.333 128.308v-15.616m13.333 4.462c0 8.923-13.333 3.346-13.333 11.154" stroke="#4D8DFF" stroke-width="2" stroke-linecap="round" stroke-linejoin="round"/><path d="M19.333 112.692a3.34 3.34 0 003.334-3.346A3.34 3.34 0 0019.333 106 3.34 3.34 0 0016 109.346a3.34 3.34 0 003.333 3.346zm0 22.308a3.34 3.34 0 003.334-3.346 3.34 3.34 0 00-3.334-3.346A3.34 3.34 0 0016 131.654 3.34 3.34 0 0019.333 135zm13.333-17.846A3.34 3.34 0 0036 113.808a3.34 3.34 0 00-3.334-3.347 3.34 3.34 0 00-3.333 3.347 3.34 3.34 0 003.333 3.346z" stroke="#7CABFF" stroke-width="2" stroke-linecap="round" stroke-linejoin="round"/><circle cx="24" cy="72" r="24" fill="#D1EBFF"/><path d="M22 85v-3a2 2 0 00-2-2h-4a2 2 0 00-2 2v3m20 0v-3a2 2 0 00-2-2h-4a2 2 0 00-2 2v3" stroke="#7CABFF" stroke-width="2"/><rect x="9" y="59" width="30" height="26" rx="5" stroke="#4D8DFF" stroke-width="2"/><rect x="14" y="68" width="8" height="8" rx="2" stroke="#7CABFF" stroke-width="2"/><rect x="26" y="68" width="8" height="8" rx="2" stroke="#7CABFF" stroke-width="2"/><circle cx="13" cy="63" r="1" fill="#4D8DFF"/><circle cx="16" cy="63" r="1" fill="#4D8DFF"/><circle cx="19" cy="63" r="1" fill="#4D8DFF"/><circle cx="24" cy="24" r="24" fill="#D1EBFF"/><path d="M11.331 20h25.333c.233 0 .461.04.663.118.203.077.371.189.489.323a.69.69 0 01.184.444.678.678 0 01-.17.446l-12.666 15.21a1.206 1.206 0 01-.49.336c-.204.08-.437.123-.674.123-.237 0-.47-.042-.675-.123a1.206 1.206 0 01-.49-.336L10.17 21.331a.678.678 0 01-.17-.445.69.69 0 01.183-.443c.117-.135.285-.247.486-.324.202-.078.43-.119.662-.119z" fill="#D1EBFF" stroke="#5A97FF" stroke-width="2"/><path d="M14.046 13H33.95c.183 0 .363.03.522.09.158.06.29.144.383.247a.52.52 0 01.145.34.51.51 0 01-.133.341L24.915 25.65a.95.95 0 01-.385.257c-.16.062-.344.094-.53.094-.186 0-.37-.032-.53-.094a.95.95 0 01-.385-.257l-9.952-11.63a.511.511 0 01-.133-.342.52.52 0 01.143-.338.967.967 0 01.383-.248 1.5 1.5 0 01.52-.091z" fill="#D1EBFF" stroke="#7CABFF" stroke-width="2"/></svg>
